2-ui/3-event-details/3-mousemove-mouseover-mouseout-mouseenter-mouseleave/mouseover-bubble-nested.svg

<?xml version="1.0" encoding="UTF-8"?>
<svg width="258px" height="143px" viewBox="0 0 258 143" version="1.1" xmlns="http://www.w3.org/2000/svg" xmlns:xlink="http://www.w3.org/1999/xlink">
    <!-- Generator: sketchtool 61.2 (101010) - https://sketch.com -->
    <title>mouseover-bubble-nested.svg</title>
    <desc>Created with sketchtool.</desc>
    <defs>
        <polygon id="path-1" points="7.84066209 8.51607073 12.4865478 6.86493774 1.13686838e-13 0 3.64025044 13.7764227 6.3662792 9.66798489 9.63003598 13.8454031 11.1044189 12.6934889"></polygon>
        <filter x="-52.6%" y="-43.3%" width="212.1%" height="203.6%" filterUnits="objectBoundingBox" id="filter-2">
            <feMorphology radius="1" operator="dilate" in="SourceAlpha" result="shadowSpreadOuter1"></feMorphology>
            <feOffset dx="0" dy="1" in="shadowSpreadOuter1" result="shadowOffsetOuter1"></feOffset>
            <feGaussianBlur stdDeviation="1.5" in="shadowOffsetOuter1" result="shadowBlurOuter1"></feGaussianBlur>
            <feComposite in="shadowBlurOuter1" in2="SourceAlpha" operator="out" result="shadowBlurOuter1"></feComposite>
            <feColorMatrix values="0 0 0 0 0   0 0 0 0 0   0 0 0 0 0  0 0 0 0.2 0" type="matrix" in="shadowBlurOuter1"></feColorMatrix>
        </filter>
    </defs>
    <g id="dom" stroke="none" stroke-width="1" fill="none" fill-rule="evenodd">
        <g id="mouseover-bubble-nested.svg">
            <polygon id="Rectangle-210" fill="#FFDE99" points="184.469229 57 200 119 78 119 93.5307712 57"></polygon>
            <path d="M207.628007,30 L70.3719935,30 L50.1674421,96 L227.832558,96 L207.628007,30 Z" id="Rectangle-209" stroke="#99C0C3" stroke-width="18"></path>
            <path d="M109.435495,50 C109.207373,51.2950674 108.979905,52.5894586 108.751784,53.8838497 C93.3440967,53.1585443 77.695869,54.2321315 63,57.1046114 C64.8824936,59.6822351 66.7649871,62.2595207 68.6474807,64.8368063 C81.0640944,62.409992 94.2853434,61.5031066 107.303309,62.1158122 C107.075188,63.4108796 106.847066,64.7052707 106.619598,66 C114.180947,63.667188 133,60.9708779 133,60.9708779 C133,60.9708779 118.836197,53.1314933 109.435495,50 Z" id="Fill-54" fill="#EE6B47" transform="translate(98.000000, 58.000000) rotate(33.000000) translate(-98.000000, -58.000000) "></path>
            <g id="Cursor-/-Default-White" transform="translate(122.000000, 81.000000)">
                <g id="Rectangle-237">
                    <use fill="black" fill-opacity="1" filter="url(#filter-2)" xlink:href="#path-1"></use>
                    <path stroke-opacity="0.8" stroke="#000000" stroke-width="1" d="M8.6617598,8.75489325 L11.806255,12.7796636 L9.54386134,14.5472392 L6.39936616,10.5224689 L3.44128728,14.9806328 L-0.781456351,-1.00021852 L13.7031213,6.96320943 L8.6617598,8.75489325 Z" fill="#FFFFFF" fill-rule="evenodd"></path>
                </g>
            </g>
            <text id="mouseout" font-family="PTMono-Bold, PT Mono" font-size="14" font-weight="bold" fill="#5A4739">
                <tspan x="21" y="33">mouseout</tspan>
            </text>
            <text id="mouseover" font-family="PTMono-Bold, PT Mono" font-size="14" font-weight="bold" fill="#5A4739">
                <tspan x="144" y="81">mouseover</tspan>
            </text>
            <text id="#parent" font-family="PTMono-Bold, PT Mono" font-size="14" font-weight="bold" fill="#99C0C3">
                <tspan x="4" y="18">#parent</tspan>
            </text>
            <text id="#child" font-family="PTMono-Bold, PT Mono" font-size="14" font-weight="bold" fill="#ECC678">
                <tspan x="4" y="124">#child</tspan>
            </text>
            <path d="M124.708883,37.2760254 C123.763706,38.2291066 123.763706,39.7745412 124.708883,40.7281649 C125.65406,41.6812461 127.185806,41.6812461 128.129908,40.7281649 L133.581075,35.2293688 L133.581075,75.5589837 C133.581075,76.9075096 134.663889,78 136.00047,78 C137.335977,78 138.419328,76.9075096 138.419328,75.5589837 L138.419328,35.2293688 L143.869957,40.7281649 C144.814597,41.6812461 146.346343,41.6812461 147.29152,40.7281649 C148.23616,39.7745412 148.23616,38.2291066 147.29152,37.2760254 L137.80749,27.7072414 C137.310708,27.2060194 136.651019,26.975479 136.00047,27.0020589 C135.349384,26.975479 134.690233,27.2060194 134.192376,27.7072414 L124.708883,37.2760254 Z" id="Fill-46" fill="#5A4739"></path>
        </g>
    </g>
</svg>

<svg xmlns="http://www.w3.org/2000/svg" xmlns:xlink="http://www.w3.org/1999/xlink" width="258" height="143" viewBox="0 0 258 143"><defs><style>@import url(https://fonts.googleapis.com/css?family=Open+Sans:bold,italic,bolditalic%7CPT+Mono);@font-face{font-family:&apos;PT Mono&apos;;font-weight:700;font-style:normal;src:local(&apos;PT MonoBold&apos;),url(/font/PTMonoBold.woff2) format(&apos;woff2&apos;),url(/font/PTMonoBold.woff) format(&apos;woff&apos;),url(/font/PTMonoBold.ttf) format(&apos;truetype&apos;)}</style></defs><defs><filter id="filter-2" width="212.1%" height="203.6%" x="-52.6%" y="-43.3%" filterUnits="objectBoundingBox"><feMorphology in="SourceAlpha" operator="dilate" radius="1" result="shadowSpreadOuter1"/><feOffset dy="1" in="shadowSpreadOuter1" result="shadowOffsetOuter1"/><feGaussianBlur in="shadowOffsetOuter1" result="shadowBlurOuter1" stdDeviation="1.5"/><feComposite in="shadowBlurOuter1" in2="SourceAlpha" operator="out" result="shadowBlurOuter1"/><feColorMatrix in="shadowBlurOuter1" values="0 0 0 0 0 0 0 0 0 0 0 0 0 0 0 0 0 0 0.2 0"/></filter><path id="path-1" d="M7.84 8.516l4.647-1.651L0 0l3.64 13.776 2.726-4.108 3.264 4.177 1.474-1.152z"/></defs><g id="dom" fill="none" fill-rule="evenodd" stroke="none" stroke-width="1"><g id="mouseover-bubble-nested.svg"><path id="Rectangle-210" fill="#FFDE99" d="M184.47 57L200 119H78l15.53-62z"/><path id="Rectangle-209" stroke="#99C0C3" stroke-width="18" d="M207.628 30H70.372L50.167 96h177.666l-20.205-66z"/><path id="Fill-54" fill="#EE6B47" d="M109.435 50l-.683 3.884c-15.408-.725-31.056.348-45.752 3.22l5.647 7.733c12.417-2.427 25.638-3.334 38.656-2.721L106.62 66c7.56-2.333 26.38-5.03 26.38-5.03S118.836 53.132 109.435 50z" transform="rotate(33 98 58)"/><g id="Cursor-/-Default-White" transform="translate(122 81)"><g id="Rectangle-237"><use fill="#000" filter="url(#filter-2)" xlink:href="#path-1"/><path fill="#FFF" stroke="#000" stroke-opacity=".8" d="M8.662 8.755l3.144 4.025-2.262 1.767-3.145-4.025-2.958 4.459L-.78-1l14.484 7.963-5.041 1.792z"/></g></g><text id="mouseout" fill="#5A4739" font-family="PTMono-Bold, PT Mono" font-size="14" font-weight="bold"><tspan x="21" y="33">mouseout</tspan></text><text id="mouseover" fill="#5A4739" font-family="PTMono-Bold, PT Mono" font-size="14" font-weight="bold"><tspan x="144" y="81">mouseover</tspan></text><text id="#parent" fill="#99C0C3" font-family="PTMono-Bold, PT Mono" font-size="14" font-weight="bold"><tspan x="4" y="18">#parent</tspan></text><text id="#child" fill="#ECC678" font-family="PTMono-Bold, PT Mono" font-size="14" font-weight="bold"><tspan x="4" y="124">#child</tspan></text><path id="Fill-46" fill="#5A4739" d="M124.709 37.276a2.456 2.456 0 000 3.452 2.404 2.404 0 003.42 0l5.452-5.499v40.33a2.43 2.43 0 002.42 2.441 2.43 2.43 0 002.418-2.441v-40.33l5.451 5.5a2.405 2.405 0 003.422 0c.944-.954.944-2.5 0-3.453l-9.485-9.569a2.392 2.392 0 00-1.807-.705 2.395 2.395 0 00-1.808.705l-9.483 9.569z"/></g></g></svg>
